source/img/youtube.svg

<svg width="24" height="20" viewBox="0 0 24 20" fill="none" xmlns="http://www.w3.org/2000/svg">
<path d="M15.8509 9.29275L10.6145 5.80184C10.5159 5.73691 10.4016 5.69985 10.2837 5.69459C10.1657 5.68934 10.0486 5.71608 9.94459 5.77198C9.84061 5.82789 9.75368 5.91087 9.69302 6.01215C9.63236 6.11343 9.60022 6.22924 9.6 6.34729V13.3291C9.60013 13.4481 9.6327 13.5648 9.69421 13.6667C9.75572 13.7686 9.84384 13.8518 9.94909 13.9073C10.0524 13.9631 10.1691 13.9895 10.2864 13.9837C10.4037 13.978 10.5172 13.9402 10.6145 13.8746L15.8509 10.3837C15.9409 10.3239 16.0148 10.2429 16.0658 10.1477C16.1169 10.0526 16.1436 9.94621 16.1436 9.8382C16.1436 9.73019 16.1169 9.62385 16.0658 9.52868C16.0148 9.43351 15.9409 9.35245 15.8509 9.29275ZM10.9091 12.1073V7.56911L14.3127 9.8382L10.9091 12.1073ZM23.3891 3.54366C23.2942 3.17547 23.1131 2.83511 22.8609 2.55061C22.6086 2.26611 22.2924 2.04561 21.9382 1.90729C18.2182 0.478201 12.2509 0.500019 12 0.500019C11.7491 0.500019 5.78182 0.478201 2.06182 1.90729C1.70764 2.04561 1.3914 2.26611 1.13914 2.55061C0.886889 2.83511 0.705838 3.17547 0.610909 3.54366C0.327273 4.61275 0 6.57638 0 9.8382C0 13.1 0.327273 15.0637 0.610909 16.1327C0.705838 16.5009 0.886889 16.8413 1.13914 17.1258C1.3914 17.4103 1.70764 17.6308 2.06182 17.7691C5.78182 19.1982 11.7491 19.1764 12 19.1764H12.0764C12.8291 19.1764 18.3927 19.1327 21.9382 17.7691C22.2924 17.6308 22.6086 17.4103 22.8609 17.1258C23.1131 16.8413 23.2942 16.5009 23.3891 16.1327C23.6727 15.0637 24 13.1 24 9.8382C24 6.57638 23.6727 4.61275 23.3891 3.54366ZM22.1236 15.8055C22.0807 15.972 21.999 16.1259 21.8853 16.2548C21.7715 16.3838 21.6289 16.484 21.4691 16.5473C17.9782 17.8891 12.0655 17.8673 12 17.8673C11.9345 17.8673 6.02182 17.8891 2.53091 16.5473C2.37107 16.484 2.22846 16.3838 2.11471 16.2548C2.00096 16.1259 1.91929 15.972 1.87636 15.8055C1.61455 14.8018 1.30909 12.9582 1.30909 9.8382C1.30909 6.7182 1.61455 4.87457 1.87636 3.87093C1.91929 3.70445 2.00096 3.55047 2.11471 3.42156C2.22846 3.29264 2.37107 3.19243 2.53091 3.12911C6.02182 1.78729 11.9345 1.80911 12 1.80911C12.0655 1.80911 17.9782 1.78729 21.4691 3.12911C21.6289 3.19243 21.7715 3.29264 21.8853 3.42156C21.999 3.55047 22.0807 3.70445 22.1236 3.87093C22.3855 4.87457 22.6909 6.7182 22.6909 9.8382C22.6909 12.9582 22.3855 14.8018 22.1236 15.8055Z" fill="#231F20"/>
</svg>

<svg xmlns="http://www.w3.org/2000/svg" width="24" height="20"><path d="m15.85 9.3-5.24-3.5a.65.65 0 0 0-1.01.55v6.98a.65.65 0 0 0 1.01.54l5.24-3.49a.65.65 0 0 0 0-1.09Zm-4.94 2.8V7.58l3.4 2.27-3.4 2.27Zm12.48-8.56a2.4 2.4 0 0 0-1.45-1.63C18.22.48 12.25.5 12 .5S5.78.48 2.06 1.9A2.4 2.4 0 0 0 .61 3.55 25.32 25.32 0 0 0 0 9.84c0 3.26.33 5.22.61 6.3a2.4 2.4 0 0 0 1.45 1.63c3.72 1.43 9.69 1.4 9.94 1.4h.08c.75 0 6.31-.04 9.86-1.4a2.4 2.4 0 0 0 1.45-1.64c.28-1.07.61-3.03.61-6.3 0-3.25-.33-5.22-.61-6.29Zm-1.27 12.27a1.1 1.1 0 0 1-.65.74c-3.5 1.34-9.4 1.32-9.47 1.32-.07 0-5.98.02-9.47-1.32a1.09 1.09 0 0 1-.65-.74c-.27-1-.57-2.85-.57-5.97 0-3.12.3-4.97.57-5.97a1.1 1.1 0 0 1 .65-.74C6.03 1.79 11.93 1.8 12 1.8c.07 0 5.98-.02 9.47 1.32a1.1 1.1 0 0 1 .65.74c.27 1 .57 2.85.57 5.97 0 3.12-.3 4.96-.57 5.97Z"/></svg>
